icons/rheumatology_fill.svg

<svg width="48" height="48" viewBox="0 0 48 48" fill="none" xmlns="http://www.w3.org/2000/svg">
<path fill-rule="evenodd" clip-rule="evenodd" d="M27 6H21V12L21 12.0044V15.6815C21 16.5241 20.6576 17.3305 20.0515 17.9157L19.6306 18.322C18.6126 19.305 18.5983 20.9317 19.599 21.9323C20.3692 22.7026 21.546 22.8936 22.5204 22.4064L22.7257 22.3037C23.5278 21.9026 24.472 21.9026 25.2742 22.3037L25.4795 22.4064C26.4538 22.8936 27.6306 22.7026 28.4009 21.9323C29.4015 20.9317 29.3873 19.305 28.3693 18.322L27.9484 17.9157C27.3423 17.3305 27 16.5241 27 15.6815L27 6ZM19 6H9C7.34315 6 6 7.34315 6 9V39C6 40.6569 7.34315 42 9 42H19V37.0808C13.7373 35.0679 10 29.9704 10 24C10 18.0296 13.7373 12.9321 19 10.9193V6ZM21 42H27L27 32.3182C27 31.4757 27.3423 30.6693 27.9484 30.0841L28.3693 29.6777C29.3873 28.6948 29.4015 27.0681 28.4009 26.0675C27.6306 25.2972 26.4538 25.1062 25.4795 25.5934L25.2742 25.696C24.472 26.0971 23.5278 26.0971 22.7257 25.696L22.5204 25.5934C21.546 25.1062 20.3692 25.2972 19.599 26.0674C18.5983 27.0681 18.6126 28.6948 19.6306 29.6777L20.0515 30.084C20.6576 30.6693 21 31.4757 21 32.3183V36.6623L21 36.6667V42ZM29 42H39C40.6569 42 42 40.6569 42 39V9C42 7.34315 40.6569 6 39 6H29V10.9193C34.2627 12.9321 38 18.0296 38 24C38 29.9704 34.2627 35.0679 29 37.0808V42Z" fill="black"/>
</svg>

<svg
  xmlns="http://www.w3.org/2000/svg"
  width="24"
  height="24"
  viewBox="0 0 24 24"
  fill="none"
  stroke="currentColor"
  stroke-width="2"
  stroke-linecap="round"
  stroke-linejoin="round"
>
  <path
    fill-rule="evenodd"
    d="M27 6h-6v9.682c0 .842-.342 1.649-.948 2.234l-.421.406a2.53 2.53 0 0 0 2.89 4.084l.205-.102a2.85 2.85 0 0 1 2.548 0l.206.102a2.53 2.53 0 0 0 2.89-4.084l-.422-.406A3.1 3.1 0 0 1 27 15.68zm-8 0H9a3 3 0 0 0-3 3v30a3 3 0 0 0 3 3h10v-4.92c-5.263-2.012-9-7.11-9-13.08s3.737-11.068 9-13.08zm2 36h6v-9.682c0-.842.342-1.649.948-2.234l.421-.406a2.53 2.53 0 0 0-2.89-4.085l-.205.103a2.85 2.85 0 0 1-2.548 0l-.206-.103a2.53 2.53 0 0 0-2.89 4.085l.422.406c.606.585.948 1.392.948 2.234V42m8 0h10a3 3 0 0 0 3-3V9a3 3 0 0 0-3-3H29v4.92c5.263 2.012 9 7.11 9 13.08s-3.737 11.068-9 13.08z"
    clip-rule="evenodd"
  />
</svg>
